assets/web/icons/drag-list.svg

<svg width="24" height="24" viewBox="0 0 24 24" fill="none" xmlns="http://www.w3.org/2000/svg">
<path d="M5 15C4.71667 15 4.47917 14.9042 4.2875 14.7125C4.09583 14.5208 4 14.2833 4 14C4 13.7167 4.09583 13.4792 4.2875 13.2875C4.47917 13.0958 4.71667 13 5 13H19C19.2833 13 19.5208 13.0958 19.7125 13.2875C19.9042 13.4792 20 13.7167 20 14C20 14.2833 19.9042 14.5208 19.7125 14.7125C19.5208 14.9042 19.2833 15 19 15H5ZM5 11C4.71667 11 4.47917 10.9042 4.2875 10.7125C4.09583 10.5208 4 10.2833 4 10C4 9.71667 4.09583 9.47917 4.2875 9.2875C4.47917 9.09583 4.71667 9 5 9H19C19.2833 9 19.5208 9.09583 19.7125 9.2875C19.9042 9.47917 20 9.71667 20 10C20 10.2833 19.9042 10.5208 19.7125 10.7125C19.5208 10.9042 19.2833 11 19 11H5Z" fill="currentColor"/>
</svg>

<svg xmlns="http://www.w3.org/2000/svg" width="24" height="24" fill="currentColor" viewBox="0 0 24 24">
  <path d="M5 15a.967.967 0 0 1-.713-.287A.968.968 0 0 1 4 14c0-.283.096-.52.287-.713A.967.967 0 0 1 5 13h14a.97.97 0 0 1 .712.287c.192.192.288.43.288.713s-.096.52-.288.713A.968.968 0 0 1 19 15H5Zm0-4a.967.967 0 0 1-.713-.287A.968.968 0 0 1 4 10c0-.283.096-.52.287-.713A.968.968 0 0 1 5 9h14a.97.97 0 0 1 .712.287c.192.192.288.43.288.713s-.096.52-.288.713A.968.968 0 0 1 19 11H5Z"/>
</svg>
